X: 507
T: Vaklaj Vaklaj
O: Bulgaria
F: http://www.youtube.com/watch?v=4hK3h052RpA
M: 7/8
L: 1/8
Q: 1/4=150
K: Dm
%%MIDI program 71
|:c2=Bdc2B|AGFGAF2|ECD2CD2|EFEGF3|
  c2=Bdc2B|AGFGAF2|ECD2CD2|CD6:|
C3C2F2|E2FED2F|D3D2D2|D2CE4|
C3C2F2|E2FED2F|DED2D2G|D7|



